X:1
T: Cherkessia Kfula
C: Trad
R: Polka
G: Dance Tune
Z: ABC transcription by Verge Roller
M: 2/4
L: 1/8
K: G
r: 32
|: "G" dd-dc | "G" BA G2 | "C" cc-cd | "C" e2 e2 | "G" dd-dc | "G" [1 "G" B2 A2 | "D" d4-|d4 :| [2 "D" B2 A2 | "G" G4-|G4 |]
|: "C" ee-ed | "C" cd e2 | "G" dd-dc | "G" Bc d2 | "D" cc-cB | "D" [1 A2 Bc | "G" d4-|d4 :| [2 "D" A2 BA | "G" G4-|G4 |]
